X:16
T:Scott Skinner's Compliments To Dr. MacDonald
C:Joe Buchanan's Scottish Tome - Page 020.0
I:020 0
C:J. S. Skinner
R:Barndance
Z:Carl Allison
L:1/8
M:4/4
K:Amaj
|:E|{G}A2a>f e/d/c/B/ A.B/.c/|.d.f (ea) {cd}(cB) (Bc)|
!>!de/f/ !>!ef/g/ .a.e.c.A|d/B/e/d/ c/A/B/G/ (EA)
A:|
g|{g}!>!a2ef/g/ aecA|df ea {cd}cB Bg|
{g}a2ef/g/ ae cA|d/B/e/d/ c/A/B/G/ EA Ae|
ag/f/ ef/g/ {g}aecA|df ea {cd}cBB2|
!>!AB/c/ !>!de/f/ !>!ef/g/ !>!ae/c/|d/B/e/d/ c/A/B/G/ EAA|]
E|.A/.B/.c/.d/ .e/.f/.g/.a/ |  .e/.c/.B/.A/ .G/.A/.B/.c/|{e}d/c/d/f/ e/A/a/e/ {cd}(cB)(Bc)|
d/c/d/f/ ^d/e/f/g/ a/g/f/e/ =d/c/B/A/|d/B/e/d/ c/A/B/G/ (EA)
A:|
e|a/g/f/e/ ^d/e/f/g/ .a.e .c.A|d/e/f/d/ e/f/g/a/ {cd}cB Be|
a/g/f/e/ ^d/e/f/g/ a/e/c/a/ e/c/A/c/|d/B/e/d/ c/A/B/G/ E(A A) (3e/f/g/|
a/g/f/e/ ^d/e/f/g/ .a.e.c.A|d/e/f/d/ e/f/g/a/ {cd}(cB) (Bc)|
A/c/B/d/ c/e/d/f/ e/f/g/a/ e/c/B/A/|d/B/e/d/ c/A/B/G/ EA A|]
